X:1

T:Road to Lisdoonvarna [1]

M:12/8

L:1/8

S:Single Jig

S:Jay Ungar

K:E Dor

E2B B2A B2c d3|F2A ABA D2E FED|E2B B2A B2c d3|cdc B2A B2E E2D:|

|:e2f gfe d2B Bcd|c2A ABc d2B B3|e2f gfe d2B Bcd|cdc B2A B2E E3:|

 

ROAD TO LISDOONVARNA [2]. AKA and see "All the Way to Galway [1]," “Flash Away the Pressing Gang,” "The Galway Girls," “High Way to Galloway,” "Sarsfield March," "The March of the Tribes to Galway," "Slash Away the Pressing Gang," "Yankee Doodle Dandy." Irish, Reel. D Mixolydian. Standard tuning (fiddle). AABB. The same tune as version #1; it is played as a reel or single jig (or sometimes both, as in the case of the Chieftains recording). It has also been called a mixolydian version of  the march “All the Way to Galway” (Miller, 2006). Philippe Varlet speculates the “Road” title for this tune stems from the Chieftain’s recording in which it appeared as an untitled tune before “Road to Losdoonvarna [1]," the slide, and that the “Road” title subsequently became attached to the reel as well. See also the Scots relatives "Ciorsdan Mhor", "Big Kirsty", "Miss Stewart Bun Rannoch" and "A' the Way to Galloway." See also the related Irish polka “The Kerry Cow.” Sources for notated versions: set dance music recorded at Na Píobairí Uilleann, late 1980’s [Taylor]; piper Paddy Moloney of the Chieftains [Miller & Perron]. Brody (Fiddlers Fakebook), 1983; pg. 231. Bulmer & Sharpley (Music from Ireland), 1974, vol. 1, No. 19. McCullough (120 Favorite Irish Session Tunes). Miller & Perron (Irish Traditional Fiddle Music), 1977; vol. 2, No. 57 (appears as untitled reel). Miller & Perron (Irish Traditional Fiddle Music), 2nd Edition, 2006; p. 101. Taylor (Music for the Sets: Blue Book), 1995; p. 24. Valley (Play Tin Whistle with the Armagh Pipers Club), vol. 2; 23.  Island 9379, Chieftains‑ "Chieftains 3." Shanachie 79023, "Chieftains 3" (1971/1982).

